gdscript/src/main/resources/icons/godot_editor/TerrainMatchCorners.svg

<svg height="16" viewBox="0 0 16 16" width="16" xmlns="http://www.w3.org/2000/svg"><g stroke-width="70.7093"><path d="m15 1h-6v3h3v3h3z" fill="#ffca5f"/><path d="m1 1h6v3h-2.9999996l-.0000004 3h-3.0000004z" fill="#77ce57"/><path d="m1 15h5.9999999v-3h-3v-3h-2.9999999z" fill="#ffca5f"/><path d="m15.000001 15h-6v-3h2.999999l.000001-2.9999997h3z" fill="#77ce57"/></g></svg>

<svg height="16" viewBox="0 0 16 16" width="16" xmlns="http://www.w3.org/2000/svg"><path d="M15 1H9v3h3v3h3zM1 15h6v-3H4V9H1z" fill="#ffca5f"/><path d="M1 1h6v3H4v3H1zM15 15H9v-3h3V9h3z" fill="#77ce57"/></svg>
